X:1
T:James Gibb editions
T:Questi capelli d'or - Gorzanis
%%score [ 1 2 3 ]
L:1/8
Q:1/4=108
M:2/2
K:C
V:1 treble-8 nm="Tenor I" snm="T I"
V:2 treble-8 nm="Tenor II" snm="T II"
V:3 bass nm="Bass" snm="B"
V:1
"^Questi capelli d'or""^Giacomo Gorzanis\n(1520-79)" B4 e4 | e4 c2 c2 | f4 e2 c2- | c2 e2 d4 | %4
w: Ques- ti|ca- pel- li|d'or e ques\-|* te trec-|
 c4 ::[M:2/2][K:treble-8] d2 dd | e2 c2 d2 e2 | c2 d2 e2 c2 | d2 e c2 d B2 | A2 z2 z4 | %10
w: ce|M'han- no li-|ga- to~~il cor, m'han-|no li- ga- to~~il|cor con cen- to no-|di|
 g2 ff ee e2 | z2 g2 ffee | e4 B4 | G4 c4 | B8 | A8 :| %16
w: Ch'o- gni ca- pil- lo~~al cor,|ch'o- gni ca- pil- lo~~al|cor ha|mil- le|no-|di.|
V:2
 G4 G4 | c4 A2 A2- | A2 B2 c2 A2- | A2 c2 (c2 B2) | c4 ::[M:2/2][K:treble-8] B2 BB | c2 A2 B2 c2 | %7
w: Ques- ti|ca- pel- li|* d'or e ques\-|* te trec\- *|ce|M'han- no li-|ga- to~~il cor, m'han-|
 A2 B2 c2 A2 | B2 c A2 A ^G2 | A2 c2 B2 A2 | (BcA)d (c2 B2) | (AcBc) Adcc | B4 G4 | E4 A4 | %14
w: no li- ga- to~~il|cor con cen- to no-|di Ch'o- gni ca-|pil\- * * lo~~al cor, *|ch'o\- * * * gni ca- pil- lo~~al|cor ha|mil- le|
 (A2 ^G^F G2 G2) | A8 :| %16
w: no\- * * * *|di.|
V:3
 E,4 C,4 | C,4 F,2 F,2 | D,4 C,2 F,2- | F,2 C,2 G,4 | C,4 ::[M:2/2] G,2 G,G, | C,2 F,2 G,2 C,2 | %7
w: Ques- ti|ca- pel- li|d'or e ques\-|* te trec-|ce|M'han- no li-|ga- to~~il cor, m'han-|
 F,2 G,2 E,2 F,2 | G,2 C, F,2 D, E,2 | A,,2 A,2 G,2 F,2 | E,2 D,2 A,2 (G,E,) | F,2 E,2 D,2 A,2 | %12
w: no li- ga- to~~il|cor con cen- to no-|di Ch'o- gni ca-|pil- lo~~al cor, ch'o\- *|gni ca- pil- lo~~al|
 E,4 E,4 | C,4 A,,4 | E,8 | A,,8 :| %16
w: cor ha|mil- le|no-|di.|

